X:81
T:Mount Edgcomb
M:6/8
L:1/8
B:Thompson's Compleat Collection of 200 Favourite Country Dances, vol. 2 (London, 1765)
Z:Transcribed and edited by Flynn Titford-Mock, 2007
Z:abc's:AK/Fiddler's Companion
K:G
GDD BGG | dBB g3 | dde BBc | AAB AFD | GDD BGG | dBB g3 | aff gee | d3 D3 :|
|: ddd eBc | ccc dAB | BBB cdB | ABG AFD | GDD BGG | dBB g3 | dBB cAA | G3 [G,3G3] :|

